devices/24/video-display.svg

<?xml version="1.0" encoding="UTF-8" standalone="no"?>
<svg
   xmlns:dc="http://purl.org/dc/elements/1.1/"
   xmlns:cc="http://creativecommons.org/ns#"
   xmlns:rdf="http://www.w3.org/1999/02/22-rdf-syntax-ns#"
   xmlns:svg="http://www.w3.org/2000/svg"
   xmlns="http://www.w3.org/2000/svg"
   xmlns:xlink="http://www.w3.org/1999/xlink"
   version="1.1"
   width="24"
   height="24"
   id="svg3012">
  <metadata
     id="metadata43">
    <rdf:RDF>
      <cc:Work
         rdf:about="">
        <dc:format>image/svg+xml</dc:format>
        <dc:type
           rdf:resource="http://purl.org/dc/dcmitype/StillImage" />
      </cc:Work>
    </rdf:RDF>
  </metadata>
  <defs
     id="defs3014">
    <linearGradient
       id="linearGradient3912">
      <stop
         id="stop3914"
         style="stop-color:#787878;stop-opacity:1"
         offset="0" />
      <stop
         id="stop3916"
         style="stop-color:#bebebe;stop-opacity:1"
         offset="0.35046947" />
      <stop
         id="stop3918"
         style="stop-color:#c8c8c8;stop-opacity:1"
         offset="0.49417919" />
      <stop
         id="stop3920"
         style="stop-color:#e6e6e6;stop-opacity:1"
         offset="0.58907253" />
      <stop
         id="stop3922"
         style="stop-color:#8c8c8c;stop-opacity:1"
         offset="1" />
    </linearGradient>
    <linearGradient
       id="linearGradient10691-1">
      <stop
         id="stop10693-3"
         style="stop-color:#000000;stop-opacity:1"
         offset="0" />
      <stop
         id="stop10695-1"
         style="stop-color:#000000;stop-opacity:0"
         offset="1" />
    </linearGradient>
    <linearGradient
       id="linearGradient4293">
      <stop
         offset="0"
         style="stop-color:#ffffff;stop-opacity:1"
         id="stop4295" />
      <stop
         offset="0.03432899"
         style="stop-color:#ffffff;stop-opacity:0.23529412"
         id="stop4297" />
      <stop
         offset="0.96892834"
         style="stop-color:#ffffff;stop-opacity:0.15686275"
         id="stop4299" />
      <stop
         offset="1"
         style="stop-color:#ffffff;stop-opacity:0.39215687"
         id="stop4301" />
    </linearGradient>
    <linearGradient
       xlink:href="#linearGradient3912"
       id="linearGradient3176"
       gradientUnits="userSpaceOnUse"
       gradientTransform="matrix(0.57696706,0,0,0.6063427,-194.65125,-34.797997)"
       x1="361.10583"
       y1="87.050117"
       x2="361.10583"
       y2="94.396416" />
    <radialGradient
       xlink:href="#linearGradient10691-1"
       id="radialGradient3182"
       gradientUnits="userSpaceOnUse"
       gradientTransform="matrix(0.96840037,0,0,0.20751434,5.509091,7.223683)"
       cx="6.702713"
       cy="73.615715"
       fx="6.702713"
       fy="73.615715"
       r="7.228416" />
    <linearGradient
       xlink:href="#linearGradient4293"
       id="linearGradient3197"
       gradientUnits="userSpaceOnUse"
       gradientTransform="matrix(0.58932647,0,0,0.38995666,-2.1438423,1.2179352)"
       x1="24.809988"
       y1="51.150356"
       x2="24.809988"
       y2="42.989254" />
    <linearGradient
       id="linearGradient3223-9">
      <stop
         id="stop3225-6"
         style="stop-color:#ffffff;stop-opacity:1"
         offset="0" />
      <stop
         id="stop3227-2"
         style="stop-color:#ffffff;stop-opacity:0.23529412"
         offset="0.01500674" />
      <stop
         id="stop3229-0"
         style="stop-color:#ffffff;stop-opacity:0.15686275"
         offset="0.99559212" />
      <stop
         id="stop3231-1"
         style="stop-color:#ffffff;stop-opacity:0.39215687"
         offset="1" />
    </linearGradient>
    <linearGradient
       y2="41.422607"
       x2="23.99999"
       y1="6.3918076"
       x1="23.99999"
       gradientTransform="matrix(0.56756766,0,0,0.37837836,-1.6216268,0.41892331)"
       gradientUnits="userSpaceOnUse"
       id="linearGradient3224"
       xlink:href="#linearGradient3223-9" />
    <linearGradient
       id="outerBackgroundGradient-5-0-2-5">
      <stop
         style="stop-color:#261e2b;stop-opacity:1;"
         offset="0"
         id="stop3864-8-6-4-7-0" />
      <stop
         style="stop-color:#352f39;stop-opacity:1;"
         offset="1"
         id="stop3866-9-1-86-7-6" />
    </linearGradient>
    <linearGradient
       y2="2"
       x2="15"
       y1="24.618645"
       x1="15"
       gradientTransform="matrix(0.50000009,0,0,0.56521738,1.4999986,7.5217386)"
       gradientUnits="userSpaceOnUse"
       id="linearGradient3262"
       xlink:href="#outerBackgroundGradient-5-0-2-5" />
    <linearGradient
       id="linearGradient3880-3-9">
      <stop
         style="stop-color:#ffffff;stop-opacity:1;"
         offset="0"
         id="stop3883-1-6" />
      <stop
         style="stop-color:#ffffff;stop-opacity:0;"
         offset="1"
         id="stop3885-5-6" />
    </linearGradient>
    <linearGradient
       y2="12"
       x2="20"
       y1="-3"
       x1="10"
       gradientTransform="matrix(0.55000009,0,0,0.5555555,0.4499978,6.4444438)"
       gradientUnits="userSpaceOnUse"
       id="linearGradient3365"
       xlink:href="#linearGradient3880-3-9" />
  </defs>
  <path
     style="opacity:0.3;fill:url(#radialGradient3182);fill-opacity:1;fill-rule:nonzero;stroke:none;stroke-width:0.80000001;marker:none;visibility:visible;display:inline;overflow:visible"
     id="path2589"
     d="M 19,22.500001 C 19,23.328428 15.865993,24 11.999999,24 8.1340066,24 5,23.328428 5,22.500001 5,21.671573 8.1340066,21 11.999999,21 15.865993,21 19,21.671573 19,22.500001 l 0,0 z" />
  <path
     style="color:#000000;fill:url(#linearGradient3176);fill-opacity:1;fill-rule:nonzero;stroke:none;stroke-width:0.99827474000000005;stroke-linecap:round;stroke-linejoin:round;stroke-miterlimit:4;stroke-opacity:1;stroke-dasharray:none;stroke-dashoffset:0.50000001000000005;marker:none;visibility:visible;display:inline;overflow:visible;enable-background:new"
     id="rect1789"
     d="m 8.5,17.499134 c 0,0 0.2272727,2.146045 0,2.500866 -0.3925362,0.612833 -1.6072079,0.5 -1.6072079,0.5 -0.5228141,0.06321 -0.527139,2.000859 0,2.000859 l 10.2143739,0 c 0.527139,0 0.522923,-1.938456 0,-2.000859 0,0 -1.171508,0.08298 -1.607166,-0.5 -0.245811,-0.328936 0,-2.500866 0,-2.500866 l -7,0 z" />
  <path
     style="color:#000000;fill:none;stroke:url(#linearGradient3197);stroke-width:0.99999994;stroke-linecap:round;stroke-linejoin:round;stroke-miterlimit:4;stroke-opacity:1;stroke-dasharray:none;stroke-dashoffset:0;marker:none;visibility:visible;display:inline;overflow:visible;enable-background:accumulate"
     d="m 9.5317834,16.75841 c 0,0 0.066416,2.143517 0.049899,2.458064 -0.01513,0.287652 -0.026542,0.5927 -0.074595,0.872684 -0.048054,0.279985 -0.2327195,0.491303 -0.4206528,0.744653 C 8.6716825,21.392929 7.7665389,21.485633 7.5155844,21.5 l 8.9850896,0 c -0.250954,-0.01437 -1.145643,-0.159507 -1.560389,-0.718628 -0.187931,-0.25335 -0.383057,-0.412229 -0.431111,-0.692214 -0.04805,-0.279983 -0.108238,-0.585032 -0.123368,-0.872684 -0.01654,-0.314547 0.08241,-2.458064 0.08241,-2.458064 z"
     id="path4050" />
  <path
     style="color:#000000;fill:none;fill-opacity:1;fill-rule:nonzero;stroke:#000000;stroke-width:0.99827462000000000;stroke-linecap:round;stroke-linejoin:round;stroke-miterlimit:4;stroke-opacity:1;stroke-dasharray:none;stroke-dashoffset:0.50000001000000005;marker:none;visibility:visible;display:inline;overflow:visible;enable-background:new;opacity:0.40000000000000002"
     id="rect1789-7"
     d="m 8.5,17.499134 c 0,0 0.2272727,2.146045 0,2.500866 -0.3925362,0.612833 -1.6072079,0.5 -1.6072079,0.5 -0.5228141,0.06321 -0.527139,2.000859 0,2.000859 l 10.2143739,0 c 0.527139,0 0.522923,-1.938456 0,-2.000859 0,0 -1.171508,0.08298 -1.607166,-0.5 -0.245811,-0.328936 0,-2.500866 0,-2.500866 l -7,0 z" />
  <rect
     style="fill:#1a1a1a;fill-opacity:1;stroke:#000000;stroke-width:1.00023937;stroke-linecap:round;stroke-linejoin:round;stroke-miterlimit:4;stroke-opacity:1;stroke-dasharray:none;stroke-dashoffset:0.50000001"
     id="rect2722"
     y="1.5001202"
     x="0.50010204"
     ry="0.48484477"
     rx="0.51110935"
     height="15.999761"
     width="22.999796" />
  <rect
     width="21"
     height="14"
     rx="0"
     ry="0"
     x="1.5"
     y="2.5"
     id="rect6741-9-2"
     style="opacity:0.2;fill:none;stroke:url(#linearGradient3224);stroke-width:1;stroke-linecap:round;stroke-linejoin:round;stroke-miterlimit:4;stroke-opacity:1;stroke-dasharray:none;stroke-dashoffset:0" />
  <path
     style="fill:url(#linearGradient3262);fill-opacity:1;stroke:none;display:inline"
     d="M 2,3 22,3 22,16 2,16 z"
     id="rect2722-0-2-1" />
  <path
     style="fill:#000000;fill-opacity:1;stroke:none;display:inline;opacity:0.29999999999999999;color:#000000;fill-rule:nonzero;stroke-width:1;marker:none;visibility:visible;overflow:visible;enable-background:accumulate"
     d="M 2 3 L 2 16 L 22 16 L 22 3 L 2 3 z M 3 4 L 21 4 L 21 15 L 3 15 L 3 4 z "
     id="rect2722-0-2-1-6" />
  <path
     style="opacity:0.2;fill:url(#linearGradient3365);fill-opacity:1;stroke:none;display:inline"
     d="M 1,2 1,12 23,4.708333 23,2 z"
     id="rect3872-1-8" />
</svg>

<svg xmlns="http://www.w3.org/2000/svg" xmlns:xlink="http://www.w3.org/1999/xlink" viewBox="0 0 24 24"><defs><linearGradient id="a"><stop offset="0" stop-color="#787878"/><stop offset=".35" stop-color="#bebebe"/><stop offset=".494" stop-color="#c8c8c8"/><stop offset=".589" stop-color="#e6e6e6"/><stop offset="1" stop-color="#8c8c8c"/></linearGradient><linearGradient id="b"><stop offset="0"/><stop offset="1" stop-opacity="0"/></linearGradient><linearGradient id="c"><stop offset="0" stop-color="#fff"/><stop offset=".034" stop-color="#fff" stop-opacity=".235"/><stop offset=".969" stop-color="#fff" stop-opacity=".157"/><stop offset="1" stop-color="#fff" stop-opacity=".392"/></linearGradient><linearGradient xlink:href="#a" id="h" gradientUnits="userSpaceOnUse" gradientTransform="matrix(.57697 0 0 .60634 -194.65 -34.798)" x1="361.106" y1="87.05" x2="361.106" y2="94.396"/><radialGradient xlink:href="#b" id="g" gradientUnits="userSpaceOnUse" gradientTransform="matrix(.9684 0 0 .2075 5.51 7.224)" cx="6.703" cy="73.616" fx="6.703" fy="73.616" r="7.228"/><linearGradient xlink:href="#c" id="i" gradientUnits="userSpaceOnUse" gradientTransform="matrix(.58933 0 0 .38996 -2.144 1.218)" x1="24.81" y1="51.15" x2="24.81" y2="42.989"/><linearGradient id="d"><stop offset="0" stop-color="#fff"/><stop offset=".015" stop-color="#fff" stop-opacity=".235"/><stop offset=".996" stop-color="#fff" stop-opacity=".157"/><stop offset="1" stop-color="#fff" stop-opacity=".392"/></linearGradient><linearGradient y2="41.423" x2="24" y1="6.392" x1="24" gradientTransform="matrix(.56757 0 0 .37838 -1.622 .42)" gradientUnits="userSpaceOnUse" id="j" xlink:href="#d"/><linearGradient id="e"><stop offset="0" stop-color="#261e2b"/><stop offset="1" stop-color="#352f39"/></linearGradient><linearGradient y2="2" x2="15" y1="24.619" x1="15" gradientTransform="matrix(.5 0 0 .56522 1.5 7.522)" gradientUnits="userSpaceOnUse" id="k" xlink:href="#e"/><linearGradient id="f"><stop offset="0" stop-color="#fff"/><stop offset="1" stop-color="#fff" stop-opacity="0"/></linearGradient><linearGradient y2="12" x2="20" y1="-3" x1="10" gradientTransform="matrix(.55 0 0 .55556 .45 6.444)" gradientUnits="userSpaceOnUse" id="l" xlink:href="#f"/></defs><path d="M19 22.5c0 .828-3.134 1.5-7 1.5s-7-.672-7-1.5S8.134 21 12 21s7 .672 7 1.5z" opacity=".3" fill="url(#g)" overflow="visible"/><path d="M8.5 17.5s.227 2.145 0 2.5c-.393.613-1.607.5-1.607.5-.523.063-.527 2 0 2h10.214c.527 0 .523-1.938 0-2 0 0-1.17.083-1.607-.5-.246-.33 0-2.5 0-2.5h-7z" color="#000" fill="url(#h)" overflow="visible"/><path d="M9.532 16.758s.066 2.144.05 2.458c-.015.288-.027.593-.075.873s-.233.49-.42.743c-.415.56-1.32.652-1.57.666H16.5c-.25-.015-1.145-.16-1.56-.72-.188-.253-.383-.41-.43-.69-.05-.28-.11-.587-.124-.875-.017-.314.082-2.458.082-2.458z" color="#000" fill="none" stroke="url(#i)" stroke-linecap="round" stroke-linejoin="round" overflow="visible"/><path d="M8.5 17.5s.227 2.145 0 2.5c-.393.613-1.607.5-1.607.5-.523.063-.527 2 0 2h10.214c.527 0 .523-1.938 0-2 0 0-1.17.083-1.607-.5-.246-.33 0-2.5 0-2.5h-7z" color="#000" fill="none" stroke="#000" stroke-width=".998" stroke-linecap="round" stroke-linejoin="round" stroke-dashoffset=".5" overflow="visible" opacity=".4"/><rect y="1.5" x=".5" ry=".485" rx=".511" height="16" width="23" fill="#1a1a1a" stroke="#000" stroke-linecap="round" stroke-linejoin="round" stroke-dashoffset=".5"/><rect width="21" height="14" rx="0" ry="0" x="1.5" y="2.5" opacity=".2" fill="none" stroke="url(#j)" stroke-linecap="round" stroke-linejoin="round"/><path d="M2 3h20v13H2z" fill="url(#k)"/><path d="M2 3v13h20V3H2zm1 1h18v11H3V4z" opacity=".3" color="#000" overflow="visible"/><path d="M1 2v10l22-7.292V2z" opacity=".2" fill="url(#l)"/></svg>
